X: 862
T: Duke of Hamilton's Reel
R: reel
B: Robert Bremner "A Collection of Scots Reels or Country Dances" 1757 p.86 #2
S: http://imslp.org/wiki/A_Collection_of_Scots_Reels_or_Country_Dances_(Bremner,_Robert)
Z: 2013 John Chambers <jc:trillian.mit.edu>
M: C
L: 1/8
K: Gmix
% - - - - - - - - - - - - - - - - - - - - - - - - -
V: 1
B |\
G/G/G (B/c/d) TB2Gc | TA2Fc TA2FA |\
G/G/G (B/c/d) TB2Gc | A^FcA G/G/G G :|
|: c |\
Bd-d(e/^f/ g)d B/c/d/B/ | =fc A/_B/c/A/ fc A/B/c/A/ |\
=Bd-de/^f/ g/f/e/d/ e/d/c/B/ | c/B/A/G/ ^FA G/G/G G :|
% - - - - - - - - - - - - - - - - - - - - - - - - -
V: 2 clef=bass middle=d
z |\
g2g2 g2g2 | f2f2 f2f2 |\
g2g2 g2g2 | d2d2 G2G :|\
|: z |
g2g2 g2g2 | f2f2 f2f2 |\
g2g2 g2g2 | d2d2 G2G :|
% - - - - - - - - - - - - - - - - - - - - - - - - -

%%sep 1 1 500
%%sep 1 1 500
